images/svg/icons/social/blinklist_hover.svg

<svg xmlns="http://www.w3.org/2000/svg" viewBox="0 0 40 40"><defs><style>.a{fill:#f60;}.b{fill-opacity:0.25;}.c{fill:#fff;}</style></defs><title>blinklist_hover</title><rect class="a" width="40" height="40"/><rect class="b" width="40" height="40"/><path class="c" d="M21.9,30.6a10.57,10.57,0,0,1-10-7.3L7.6,25.6V14.3l4.3,2.3a10.54,10.54,0,1,1,10,14h0Zm-0.2-19a8.49,8.49,0,0,0-8.1,6L18.1,20l-4.5,2.4a8.31,8.31,0,0,0,8,5.9A8.45,8.45,0,0,0,30,19.9a8.22,8.22,0,0,0-8.3-8.3h0Zm0,14.6a6.12,6.12,0,0,1-5.6-3.5h0.1L21,20l-4.8-2.8h0a6.33,6.33,0,0,1,5.6-3.4A6.25,6.25,0,0,1,28.1,20a6.34,6.34,0,0,1-6.4,6.2h0Z"/></svg>

<?xml version="1.0" encoding="utf-8"?>
<!-- Generator: Adobe Illustrator 19.2.0, SVG Export Plug-In . SVG Version: 6.00 Build 0)  -->
<svg version="1.1" id="Layer_1" xmlns:sketch="http://www.bohemiancoding.com/sketch/ns"
	 xmlns="http://www.w3.org/2000/svg" xmlns:xlink="http://www.w3.org/1999/xlink" x="0px" y="0px" viewBox="0 0 40 40"
	 style="enable-background:new 0 0 40 40;" xml:space="preserve">
<style type="text/css">
	.st0{fill:#FF6600;}
	.st1{fill-opacity:0.3;}
	.st2{fill:#FFFFFF;}
</style>
<title>blinklist_hover</title>
<desc>Created with Sketch.</desc>
<g id="Page-1" sketch:type="MSPage">
	<g id="blinklist_hover" sketch:type="MSLayerGroup">
		<g id="bg">
			<g sketch:type="MSShapeGroup">
				<rect id="path-1" class="st0" width="40" height="40"/>
			</g>
			<g>
				<rect id="path-1_1_" class="st1" width="40" height="40"/>
			</g>
		</g>
		<path id="Shape" sketch:type="MSShapeGroup" class="st2" d="M21.9,30.6c-4.7,0-8.6-3-10-7.3l-4.3,2.3V14.3l4.3,2.3
			c1.4-4.2,5.3-7.2,10-7.2c5.8,0,10.5,4.7,10.5,10.6C32.4,25.9,27.7,30.6,21.9,30.6L21.9,30.6z M21.7,11.6c-3.8,0-7,2.5-8.1,6
			l4.5,2.4l-4.5,2.4c1,3.4,4.2,5.9,8,5.9c4.6,0,8.4-3.7,8.4-8.4S26.4,11.6,21.7,11.6L21.7,11.6z M21.7,26.2c-2.5,0-4.6-1.4-5.6-3.5
			l0.1,0l4.8-2.7l-4.8-2.8l0,0c1-2,3.2-3.4,5.6-3.4c3.5,0,6.3,2.8,6.3,6.2S25.2,26.2,21.7,26.2L21.7,26.2z"/>
	</g>
</g>
</svg>
